X: 15
T: Buonaparte's Expedition
%R: march, reel
B: "Twenty Four Country Dances for the Year 1799", Thomas Skillern, ed. p.8 #1
F: http://www.vwml.org/browse/browse-collections-dance-tune-books/browse-skillerns1799
Z: 2014 John Chambers <jc:trillian.mit.edu>
M: 2/4
L: 1/8
K: C
G |\
c>dce | (dcc).e | (dcc).e | g3G |\
c>dce | (dccc) | A>GAB | c3 :|
g |\
(gec).a | (fdB).g | (ecA).f | (dBG).G |\
c>dce | dc-ce | A>GAB | c3 :|
%%begintext align
%% Right hands across quite round, Left hands back
%% again, Cross over 1 Cu: and turn, Right and Left.
%%endtext
